X: 1683
T: Alexander's Hornpipe
M:4/4
L:1/8
B:O'Neill's 1683
N:"collected by J.O'Neill"
K:D
(3ABc \
| d>AF>AD>FA>d | f>dc>d A2e>f | g>fe>d e>dc>d | (3efe (3dcB A2 (3ABc |
| d>AF>AD>FA>d | f>dc>d A2 e>f | gfed cABc | d2f2d2 :|
|: A2 \
| F>Ad>A F>Ad>A | G>Bd>B G>Bd>B | A>ce>cA>ce>c | d>fa>f d>fa>f |
| F>Ad>A F>Ad>A | G>Bd>B G>Bd>B | A>ce>gf>de>c | d2 f2d2 :|


